X: 1319
T: An Old Woman Would
R: reel
M: 4/4
K: Amajor
AB|:ce (3eee faec|ecec B2AB|ce (3eee faec|ecec A2AB|
ce (3eee faec|ecec B2^g2|a2gf dfeA|dBec A2AA|
a2gf dfeA|d2ef dfeA|a2gf dfeA|dBee A2AA|
a2gf dfeA|d2ef dfeA|a2gf dfeA|dBec A2AB:|

